!!!!SEGMENT: pl-cz--ii-87--003-007_grim-jozef--msza-druga-po-podniesieniu.krn
!!!cenid: 18xx:1186
!!!COM: Grim, Józef
!!!COM-rismID:
!!!CDT: ~1800-~1899
!!!CNT:
!!!OPR: Msza druga
!!!OTL: Po podniesieniu
!!!OMV: 007
!!!PDT: 1888
!!!AGN: Sacred; Mass
!!!SMS-siglum: PL-CZ
!!!SMS-shelfmark: II-87
!!!SMS-shelfwork: 003-007 M
!!!SMS-variant:
!!!SMS-altvar:
!!!NIFC-rismSourceID: 300033226
!!!NIFC-islandoraID: pl-cz:33881
!!!URL-pdf-islandora: https://repozytorium.nifc.pl/islandora/object/pl-cz%3A33881/datastream/PDF/view
!!!URL-scan:
!!!ONB-nifc: UWAGA: części Mszy: Kirie, Gloria, Graduale, Credo, Offertorium, Sanctus, Po podniesieniu, Agnus
!!!OMD: Moderato
!!!AIN: 1 organ 1 vox
!!!key: G
**kern	**kern	**dynam	**kern	**text	**dynam
*part2	*part2	*part2	*part1	*part1	*part1
*staff3	*staff2	*	*staff1	*staff1	*
*I"[Organo]	*	*	*I"[Voice]	*	*
*Iorgan	*	*	*Ivox	*	*
*ICklav	*	*	*ICvox	*	*
*IGacmp	*	*	*IGsolo	*	*
*clefF4	*clefG2	*	*clefG2	*	*
*k[f#]	*k[f#]	*	*k[f#]	*	*
*G:	*G:	*	*G:	*	*
*M4/4	*M4/4	*	*M4/4	*	*
*met(c)	*met(c)	*	*met(c)	*	*
=1	=1	=1	=1	=1	=1
1r	2d/	.	1r	.	.
.	8c#X/L	.	.	.	.
.	8d/	.	.	.	.
.	8g/	.	.	.	.
.	8b/J	.	.	.	.
=2	=2	=2	=2	=2	=2
*	*^	*	*	*	*
2r	2dd/	2r	.	1r	.	.
4r	4r	4ryy	.	.	.	.
4D\	8b/L	4f# 4c\	.	.	.	.
.	8a/J	.	.	.	.	.
=3	=3	=3	=3	=3	=3	=3
4E\	4g/	4e 4B\	.	1r	.	.
8E\L	4a [<4g/	8c\L	.	.	.	.
8E-X\J	.	8c#X\J	.	.	.	.
2F#\	4b/	4g] 4d\	.	.	.	.
.	4a 4f#/	8d\L	.	.	.	.
.	.	8cn\J	.	.	.	.
=4	=4	=4	=4	=4	=4	=4
4G\	2.g/	2.d 2.B\	.	1r	.	.
4F#\	.	.	.	.	.	.
4GG/	.	.	.	.	.	.
!	!LO:TUP:b:problem=klamra łukowa	!	!	!	!	!
4r	12d/L	4ryy	.	.	.	.
.	12g/	.	.	.	.	.
.	12a/J	.	.	.	.	.
*	*v	*v	*	*	*	*
=5||	=5||	=5||	=5||	=5||	=5||
*^	*	*	*^	*	*
2d/	1G	(<2b 2g/	.	2b/	2d\	O	.
4c#X/	.	4a#X/	.	4a#X/	4c#X\	to	.
4d/	.	4b/)	.	4b/	4d\	Bóg	.
=6	=6	=6	=6	=6	=6	=6	=6
*	*	*^	*	*	*	*	*
2e/	1G	2cc/	1g	.	2cc/	2e\	z_Nie-	.
2d/	.	2b/	.	.	2b/	2d\	-ba	.
=7	=7	=7	=7	=7	=7	=7	=7	=7
4ryy	1D	4a/	4f#\	.	4a/	4f#\	u-	.
4B/	.	4g#X 4e#X/	4ryy	.	4g#X/	4e#X\	-sty	.
4c/	.	4a/	2f#\	.	4a/	4f#\	ka-	.
4d/	.	4b/	.	.	4b/	4f#\	-płan-	.
!!LO:LB:g=original
=8	=8	=8	=8	=8	=8	=8	=8	=8
4GG/	2GG\	2a 2f#/	2c\	.	2a/	2f#\	-skie-	.
4D/	.	.	.	.	.	.	.	.
4G\	2ryy	4g/	4d 4B\	.	4g/	2ryy	-mi	.
!	!	!LO:TUP:b:problem=klamra łukowa	!	!	!	!	!	!
4r	.	12d/L	4ryy	.	4r	.	.	.
.	.	12e/	.	.	.	.	.	.
.	.	12f#/J	.	.	.	.	.	.
*v	*v	*	*	*	*	*	*	*
=9	=9	=9	=9	=9	=9	=9	=9
2E\	2g 2e/	2B\	.	2g/	2e\	spro-	.
2D\	2a 2f#/	[<2d\	.	4a/	4f#\	-wa-	.
.	.	.	.	4a/	4f#\	-dzony	.
=10	=10	=10	=10	=10	=10	=10	=10
2GG/	2b 2g/	2d\]	.	2b/	2g\	do	.
4G\	4g 4d 4B/	2ryy	.	4g/	2ryy	nas!	.
!	!LO:TUP:b:problem=klamra łukowa	!	!	!	!	!	!
4r	12d/L	.	.	4r	.	.	.
.	12g/	.	.	.	.	.	.
.	12b/J	.	.	.	.	.	.
=11	=11	=11	=11	=11	=11	=11	=11
*^	*	*	*	*	*	*	*
2G\	2ryy	4dd 4b/	2d\	.	4dd/	4b\	Niech	.
!	!	!	!	!LO:DY:rj	!	!	!	!
.	.	4b 4g/	.	f	4b/	4g\	zabrz-	.
2C\	2c/	4ee 4cc/	2ryy	.	4ee/	4cc\	-my	.
.	.	4cc 4a/	.	.	4cc/	4a\	hymn	.
*	*	*v	*v	*	*	*	*	*
=12	=12	=12	=12	=12	=12	=12	=12
[>2d/	2D\	2b 2g/	.	2b/	2g\	no-	.
4d/]	8ryy	8aL 8f#/	.	4a;/	4f#\	-wy	.
.	8D\	16c#X/L	.	.	.	.	.
.	.	16d/JJ	.	.	.	.	.
!	!	!LO:N:vis=8	!	!	!	!	!
4ryy	4ryy	16e/LL	.	4r	4ryy	.	.
!	!	!LO:N:vis=8	!	!	!	!	!
.	.	16f#/	.	.	.	.	.
!	!	!LO:N:vis=8	!	!	!	!	!
.	.	16g/	.	.	.	.	.
!	!	!LO:N:vis=8	!	!	!	!	!
.	.	16a/JJ	.	.	.	.	.
=13	=13	=13	=13	=13	=13	=13	=13
!	!	!	!	!	!	!	!LO:DY:b:rj
2d/	[<1G	2b 2g/	.	2b/	2d\	Muw-	p
4c#X/	.	4a#X/	.	4a#X/	4c#X\	-my	.
4d/	.	4b/	.	4b/	4d\	z_dziat-	.
!!LO:LB:g=original
=14	=14	=14	=14	=14	=14	=14	=14
*	*	*^	*	*	*	*	*
4e/	1G]	2cc/	1g	.	2cc/	4e\	-ka-	.
4e-X/	.	.	.	.	.	4e-X\	.	.
2d/	.	2b/	.	.	2b/	2d\	-mi	.
*	*	*	*	*	*v	*v	*	*
=15	=15	=15	=15	=15	=15	=15	=15
4c/	1G	4a/	4f#\	.	4a/	Je-	.
4B/	.	4g#X 4e#X/	4ryy	.	4g#X/	-ru-	.
4c/	.	4a/	2f#\	.	4a/	-zo-	.
4d/	.	4b/	.	.	4b/	-lim-	.
=16	=16	=16	=16	=16	=16	=16	=16
*	*	*	*	*	*^	*	*
2c/	4D\	2a/	2f#\	.	2a/	2f#\	-skie-	.
.	4D#X\	.	.	.	.	.	.	.
4B/	4E\	4g 4e/	2ryy	.	4g/	2ryy	-mi	.
4r	4ryy	8e/L	.	.	4r	.	.	.
.	.	8f#/J	.	.	.	.	.	.
=17	=17	=17	=17	=17	=17	=17	=17	=17
!	!	!	!	!LO:DY:rj:b=2	!	!	!	!
2c/	1C	2.g/	2e\	f	4r	4ryy	.	.
.	.	.	.	.	4g/	4g\	Ho-	.
2G/	.	.	2e-X\	.	4g/	4g\	-zan-	.
.	.	4g/	.	.	4a/	4g\	-na	.
=18	=18	=18	=18	=18	=18	=18	=18	=18
2G/	4GG\	2b 2g/	2d\	.	4b/	4g\	To-	.
.	4G\	.	.	.	4b/	4g\	-bie	.
4E\	2ryy	4cc/	2g\	.	4cc/	4g\	Sy-	.
4E-X\	.	4cc#X 4a#X/	.	.	4cc#X/	4g\	-nu	.
*v	*v	*	*	*	*	*	*	*
=19	=19	=19	=19	=19	=19	=19	=19
[>1D	2dd/	2b 2g\	.	2dd/	2b\	Da-	.
.	2b 2g 2d\	2ryy	.	2b/	2g\	-wi-	.
!!LO:LB:g=original
=20	=20	=20	=20	=20	=20	=20	=20
1D]	1a	2g 2c#X\	.	1a	2g\	-do-	.
.	.	2f# 2cn\	.	.	2f#\	.	.
*	*	*	*	*v	*v	*	*
=21	=21	=21	=21	=21	=21	=21
*^	*	*	*	*	*	*
!	!LO:N:vis=2	!	!	!	!	!	!
2D/	1GG	2.g/	2.B\	.	2.g/	-wy.	.
2D/	.	.	.	.	.	.	.
.	.	4d/	4B\	.	4r	.	.
*v	*v	*	*	*	*	*	*
*	*v	*v	*	*	*	*
==	==	==	==	==	==
*-	*-	*-	*-	*-	*-
!!!system-decoration: (<s1>s2,s3)
!!!RDF**kern: > = above
!!!RDF**kern: < = below
!!!ENC: Tomasz Grochalski
!!!END: 2020-11-07
!!!ENC: Andrzej Kubiczek
!!!END: 2021-11-15
